build/images/common/02.svg

<svg width="53" height="30" viewBox="0 0 53 30" fill="none" xmlns="http://www.w3.org/2000/svg">
<path d="M25.12 14.936C25.12 17.752 24.576 20.264 23.488 22.472C22.432 24.648 20.96 26.36 19.072 27.608C17.216 28.856 15.104 29.48 12.736 29.48C10.368 29.48 8.24 28.856 6.352 27.608C4.496 26.36 3.024 24.648 1.936 22.472C0.88 20.264 0.352 17.752 0.352 14.936C0.352 12.12 0.88 9.624 1.936 7.448C3.024 5.24 4.496 3.512 6.352 2.264C8.24 0.983999 10.368 0.344 12.736 0.344C15.104 0.344 17.216 0.983999 19.072 2.264C20.96 3.512 22.432 5.24 23.488 7.448C24.576 9.624 25.12 12.12 25.12 14.936ZM18.64 14.936C18.64 13.208 18.384 11.704 17.872 10.424C17.392 9.112 16.704 8.088 15.808 7.352C14.912 6.616 13.888 6.248 12.736 6.248C11.552 6.248 10.512 6.616 9.616 7.352C8.72 8.088 8.016 9.112 7.504 10.424C7.024 11.704 6.784 13.208 6.784 14.936C6.784 16.664 7.024 18.168 7.504 19.448C8.016 20.728 8.72 21.736 9.616 22.472C10.512 23.208 11.552 23.576 12.736 23.576C13.888 23.576 14.896 23.208 15.76 22.472C16.656 21.736 17.36 20.728 17.872 19.448C18.384 18.136 18.64 16.632 18.64 14.936ZM29.3084 29C29.3084 27.56 29.4204 26.264 29.6444 25.112C29.8684 23.96 30.2524 22.888 30.7964 21.896C31.3724 20.904 32.1404 19.976 33.1004 19.112C34.0924 18.216 35.3404 17.352 36.8444 16.52C38.1564 15.816 39.3084 15.208 40.3004 14.696C41.2924 14.152 42.1244 13.656 42.7964 13.208C43.5004 12.76 44.0284 12.312 44.3804 11.864C44.7324 11.384 44.9084 10.84 44.9084 10.232C44.9084 9.592 44.7324 9.016 44.3804 8.504C44.0284 7.96 43.5324 7.528 42.8924 7.208C42.2524 6.888 41.4524 6.728 40.4924 6.728C39.7244 6.728 39.0044 6.824 38.3324 7.016C37.6924 7.208 37.0844 7.48 36.5084 7.832C35.9644 8.184 35.4524 8.584 34.9724 9.032C34.4924 9.448 34.0604 9.896 33.6764 10.376L29.5964 5.672C30.0444 5.224 30.6364 4.744 31.3724 4.232C32.1404 3.688 33.0364 3.192 34.0604 2.744C35.1164 2.264 36.2684 1.88 37.5164 1.592C38.7964 1.272 40.1564 1.112 41.5964 1.112C43.7724 1.112 45.6284 1.464 47.1644 2.168C48.7004 2.84 49.8684 3.784 50.6684 5C51.5004 6.216 51.9164 7.64 51.9164 9.272C51.9164 10.392 51.7084 11.384 51.2924 12.248C50.8764 13.112 50.3484 13.88 49.7084 14.552C49.0684 15.192 48.3644 15.768 47.5964 16.28C46.8604 16.792 46.1404 17.24 45.4364 17.624C44.4444 18.136 43.5484 18.616 42.7484 19.064C41.9484 19.48 41.2444 19.912 40.6364 20.36C40.0284 20.776 39.4844 21.208 39.0044 21.656C38.5564 22.104 38.1564 22.616 37.8044 23.192H52.4444V29H29.3084Z" fill="#FCAA23"/>
</svg>

<svg width="53" height="30" fill="none" xmlns="http://www.w3.org/2000/svg"><path d="M25.12 14.936c0 2.816-.544 5.328-1.632 7.536-1.056 2.176-2.528 3.888-4.416 5.136-1.856 1.248-3.968 1.872-6.336 1.872-2.368 0-4.496-.624-6.384-1.872-1.856-1.248-3.328-2.96-4.416-5.136C.88 20.264.352 17.752.352 14.936S.88 9.624 1.936 7.448c1.088-2.208 2.56-3.936 4.416-5.184C8.24.984 10.368.344 12.736.344c2.368 0 4.48.64 6.336 1.92 1.888 1.248 3.36 2.976 4.416 5.184 1.088 2.176 1.632 4.672 1.632 7.488zm-6.48 0c0-1.728-.256-3.232-.768-4.512-.48-1.312-1.168-2.336-2.064-3.072a4.705 4.705 0 00-3.072-1.104c-1.184 0-2.224.368-3.12 1.104-.896.736-1.6 1.76-2.112 3.072-.48 1.28-.72 2.784-.72 4.512 0 1.728.24 3.232.72 4.512.512 1.28 1.216 2.288 2.112 3.024.896.736 1.936 1.104 3.12 1.104 1.152 0 2.16-.368 3.024-1.104.896-.736 1.6-1.744 2.112-3.024.512-1.312.768-2.816.768-4.512zM29.308 29c0-1.44.112-2.736.336-3.888a11.017 11.017 0 011.152-3.216c.576-.992 1.344-1.92 2.304-2.784.992-.896 2.24-1.76 3.744-2.592a247.777 247.777 0 013.456-1.824 34.352 34.352 0 002.496-1.488c.704-.448 1.232-.896 1.584-1.344a2.69 2.69 0 00.528-1.632 2.98 2.98 0 00-.528-1.728c-.352-.544-.848-.976-1.488-1.296-.64-.32-1.44-.48-2.4-.48a7.83 7.83 0 00-2.16.288 7.762 7.762 0 00-1.824.816c-.544.352-1.056.752-1.536 1.2-.48.416-.912.864-1.296 1.344l-4.08-4.704c.448-.448 1.04-.928 1.776-1.44.768-.544 1.664-1.04 2.688-1.488a18.249 18.249 0 013.456-1.152c1.28-.32 2.64-.48 4.08-.48 2.176 0 4.032.352 5.568 1.056C48.7 2.84 49.868 3.784 50.668 5c.832 1.216 1.248 2.64 1.248 4.272 0 1.12-.208 2.112-.624 2.976a8.937 8.937 0 01-1.584 2.304c-.64.64-1.344 1.216-2.112 1.728-.736.512-1.456.96-2.16 1.344-.992.512-1.888.992-2.688 1.44-.8.416-1.504.848-2.112 1.296a13.84 13.84 0 00-1.632 1.296c-.448.448-.848.96-1.2 1.536h14.64V29H29.308z" fill="#FCAA23"/></svg>
